tools/download-figma-icons/icons/solid/present.svg

<svg width="24" height="24" viewBox="0 0 24 24" fill="none" xmlns="http://www.w3.org/2000/svg">
<path d="M22.4625 6.75H17.3325C19.065 5.4525 19.5525 3.6525 19.5525 2.7375C19.5525 1.125 18.4875 0 16.9575 0C15.03 0 14.1075 1.9425 14.085 1.98L11.9775 5.91L9.8925 2.025C9.855 1.9425 8.9325 0 6.9975 0C5.475 0 4.41 1.125 4.41 2.7375C4.41 3.6525 4.8975 5.4525 6.63 6.75H1.5C1.0875 6.75 0.75 7.0875 0.75 7.5V11.25C0.75 11.6625 1.0875 12 1.5 12H22.4625C22.875 12 23.2125 11.6625 23.2125 11.25V7.5C23.2125 7.0875 22.875 6.75 22.4625 6.75ZM15.4275 2.655C15.4275 2.655 15.99 1.5 16.9575 1.5C17.6475 1.5 18.0525 1.965 18.0525 2.7375C18.0525 3.75 17.16 6.225 13.275 6.6825L15.4275 2.655ZM5.91 2.7375C5.91 1.965 6.315 1.5 6.9975 1.5C7.9725 1.5 8.5275 2.6475 8.55 2.6925L10.6875 6.6825C6.8025 6.225 5.91 3.75 5.91 2.7375Z" fill="black"/>
<path d="M20.2125 13.5H2.25V23.25C2.25 23.6625 2.5875 24 3 24H20.9625C21.375 24 21.7125 23.6625 21.7125 23.25V13.5H20.2125Z" fill="black"/>
</svg>

<svg width="24" height="24" viewBox="0 0 24 24" fill="none" xmlns="http://www.w3.org/2000/svg"><path d="M22.462 6.75h-5.13c1.733-1.298 2.22-3.098 2.22-4.013C19.552 1.125 18.488 0 16.957 0c-1.927 0-2.85 1.942-2.872 1.98l-2.108 3.93-2.085-3.885C9.855 1.942 8.933 0 6.998 0 5.474 0 4.41 1.125 4.41 2.737c0 .915.487 2.715 2.22 4.013H1.5a.752.752 0 0 0-.75.75v3.75c0 .412.337.75.75.75h20.962c.413 0 .75-.338.75-.75V7.5a.752.752 0 0 0-.75-.75Zm-7.034-4.095S15.99 1.5 16.957 1.5c.69 0 1.095.465 1.095 1.237 0 1.013-.893 3.488-4.778 3.946l2.152-4.028Zm-9.518.083c0-.773.405-1.238 1.087-1.238.976 0 1.53 1.147 1.553 1.192l2.137 3.99C6.803 6.226 5.91 3.75 5.91 2.738ZM20.212 13.5H2.25v9.75c0 .413.337.75.75.75h17.962c.413 0 .75-.337.75-.75V13.5h-1.5Z" fill="currentColor"/></svg>
